emoticon.svg

<svg fill="currentColor" viewBox="0 0 24 24"><path d="M12 2C6.47 2 2 6.5 2 12a10 10 0 0 0 10 10 10 10 0 0 0 10-10A10 10 0 0 0 12 2m3.5 6A1.5 1.5 0 0 1 17 9.5a1.5 1.5 0 0 1-1.5 1.5A1.5 1.5 0 0 1 14 9.5 1.5 1.5 0 0 1 15.5 8m-7 0A1.5 1.5 0 0 1 10 9.5 1.5 1.5 0 0 1 8.5 11 1.5 1.5 0 0 1 7 9.5 1.5 1.5 0 0 1 8.5 8m3.5 9.5c-2.33 0-4.31-1.46-5.11-3.5h10.22c-.81 2.04-2.78 3.5-5.11 3.5"/></svg>

<svg  viewBox="0 0 24 24" fill="currentColor"><path  d="M12,2C6.47,2 2,6.5 2,12A10,10 0 0,0 12,22A10,10 0 0,0 22,12A10,10 0 0,0 12,2M15.5,8A1.5,1.5 0 0,1 17,9.5A1.5,1.5 0 0,1 15.5,11A1.5,1.5 0 0,1 14,9.5A1.5,1.5 0 0,1 15.5,8M8.5,8A1.5,1.5 0 0,1 10,9.5A1.5,1.5 0 0,1 8.5,11A1.5,1.5 0 0,1 7,9.5A1.5,1.5 0 0,1 8.5,8M12,17.5C9.67,17.5 7.69,16.04 6.89,14H17.11C16.3,16.04 14.33,17.5 12,17.5Z"/></svg>
